X:18711
T:Whistler of Rosslea, The
C:Ed Reavy (1898-1988)
R:reel
Z:id:hn-reel-540
M:C|
K:G
GABc dBGg|^fdcA BGGE|=FGAB c2Bc|dBcA BGA^F|
GBAc (3Bcd ce|dg^fa gedc|Bdge dBAc|1 BGA^F G2GD:|2 BGA^F G2Bd||
|:g2dg Bgdg|gbag ^fdde|=f2cf Afcf|=fdcB AG=FA|
Ggg^f gedc|Bcde ^f2df|g2de ^fdcA|1 GBA^F G2Bd:|2 GBA^F G2GD||


